X: 43416
T: Y Delyn Newydd
R: polka
M: 2/4
K: Gmajor
|:"G" BAGA B2 d2|"D" d2 c2 c4|cBAB c2 e2|"G" e2 d2 d4|
"G" BAGA B2 d2|"D" d2 c2 c4|cB A2 cB A2|"G" B2 G2 G4:|
|:"G" g2 f2 e2 d2|g2 f2 e2 d2|g2 f2 e2 d2|"D" c2 B2 A4|
"D" f2 e2 d4|f2 e2 d4|f2 e2 d2 c2|"G" B2 A2 G4:|

